!!!!SEGMENT: sonata11-3.krn
!!!COM: Beethoven, Ludwig van
!!!CDT: 1770///-1827///
!!!OTL: Piano Sonata no. 11 in B-flat major
!!!OPS: 22
!!!OMV: 3
!!!OMD: MINUETTO\nTempo di Minuetto
**kern	**kern	**dynam
*staff2	*staff1	*staff1/2
*Ipiano	*Ipiano	*Ipiano
*>[A,A,B,B,C,C,D,D,A,B]	*>[A,A,B,B,C,C,D,D,A,B]	*>[A,A,B,B,C,C,D,D,A,B]
*>norep[A,B,C,D,A,B]	*>norep[A,B,C,D,A,B]	*>norep[A,B,C,D,A,B]
*>A	*>A	*>A
*clefF4	*clefG2	*
*k[b-e-]	*k[b-e-]	*
*B-:	*B-:	*
*M3/4	*M3/4	*
*MM110	*MM110	*
!	!	!LO:DY:rj
4r	(8.dL	p
.	16e-Jk)	.
=1	=1	=1
(8BB-L	2f	.
8B-	.	.
8d	.	.
8B-	.	.
.	(a8q	.
8e-	(16gLL)	.
.	16f	.
8cJ	16g	.
.	16aJJ)	.
=2	=2	=2
8dL	(4b-/	.
8c#	.	.
8d	4f)	.
8B-	.	.
.	(a8q	.
8e-	(16gLL)	.
.	16f	.
8cnJ	16g	.
.	16aJJ)	.
=3	=3	=3
8dL	8.b-'L	.
8c#	.	.
.	16a'k	.
8d	8.b-'	.
8A	.	.
.	16cc'k	.
8B-	8.dd'	.
8GJ)	.	.
.	16een'Jk	.
=4	=4	=4
*^	*^	*
(4F	4.F	(4een	(4b-	.
8f)	.	8ff)	8a)	.
8r	8ryy	8r	8ryy	.
.	.	(ff8q	.	.
4r	4ryy	(16ee-LL)	4ryy	.
.	.	16dd	.	.
.	.	16ee-	.	.
.	.	16ffJJ)	.	.
*	*	*v	*v	*
!!LO:LB:g=original
=5	=5	=5	=5
8r	8r	(4gg	.
8FL	(>[4.F	.	.
8A	.	4cc)	<
8cJ	.	.	.
.	.	(dd8q	.
[4e-)	4F_	(16ccLL)	.
.	.	16bn	.
.	.	16cc	.
.	.	16ddJJ)	.
=6	=6	=6	=6
8e-L]	8F]	(4ee-	.
8F	(>[4.F	.	.
8c	.	4a)	.
8e-J	.	.	.
.	.	(b-X8q	.
[4g-)	4F_	(16aLL)	.
.	.	16g	.
.	.	16a	.
.	.	16b-JJ)	.
*v	*v	*	*
=7	=7	=7
.	(dd8q	.
4F] (4g-]	(16ccLL)	.
.	16bn	.
.	16cc	.
.	16ddJJ)	.
.	(ff8q	.
4F 4f	()16ee-LL	.
.	16dd	.
.	16ee-	.
.	16ffJJ)	.
4F 4e-)	8ggn'	.
.	16r	.
.	16a	.
=8	=8	=8
[4B- (4e-	(4cc	p
8B-] 8d)	8b-X)	.
8r	8r	.
!!LO:LB:g=original
=:|!|:	=:|!|:	=:|!|:
*>B	*>B	*>B
*clefG2	*	*
(16f#LL	16a (16ddLL	p
16g	16b- 16cc#	<
16f#	16a 16dd	.
16gJJ	16b- 16cc#JJ	.
=9	=9	=9
16f#LL	16a 16ddLL	.
16g	16b- 16cc#	.
16f#	16a 16dd	.
16gJJ	16b- 16cc#JJ	.
16f#LL	16a 16ddLL	.
16g	16b- 16cc#	.
16f#	16a 16dd	.
16gJJ	16b- 16cc#JJ	.
16f#LL	16a 16ddLL	.
16g	16b- 16cc#	.
16f#	16a 16dd	.
16gJJ)	16b- 16cc#JJ)	.
=10	=10	=10
8f#'	8a' 8dd'	.
8r	8r	.
*clefF4	*	*
4.D 4.d	4.ff# 4.ddd	ff
8D' 8d'	8ff#' 8ccc'	.
=11	=11	=11
*	*^	*
8.E- 8.e-L	8.bb-L	8.ggL	.
16C' 16c'Jk	16aa'Jk	16ee-Jk	.
4D' 4d'	4gg	4b-	.
4DD' 4D'	4ff#'	4cc	.
!!LO:LB:g=original
=12	=12	=12	=12
4.GG 4.G	4aa	(4cc	.
.	8gg	8b-)	.
8r	8r	8ryy	.
(16DLL	16A- (16B-LL	4ryy	p
16E-	16c-	.	<
16D	16A- 16B-	.	.
16E-JJ	16c-JJ	.	.
*	*v	*v	*
=13	=13	=13
16DLL	16A- 16B-LL	.
16E-	16c-	.
16D	16A- 16B-	.
16E-JJ	16c-JJ	.
*tremolo	*tremolo	*
16DLL	16A- 16B-LL	.
16E-	16c-	.
16D	16A- 16B-	.
16E-	16c-	.
16D	16A- 16B-	.
16E-	16c-	.
16D	16A- 16B-	.
16E-JJ	16c-JJ	.
*Xtremolo	*Xtremolo	*
=14	=14	=14
*^	*	*
4ryy	8D')	8A- 8B-)	.
.	8r	8r	.
(4.F	4.D	4.bn (4.aa-	sf
8G)	8E-	8cc 8gg)	.
=15	=15	=15	=15
*	*	*^	*
(8.DL	8.BBnL	(8.ffL	(8.a-L	>
16E-Jk)	16CJk	16ee-Jk)	16gJk)	.
(4F	(4D	(4dd	(4f	.
4G)	4E-)	4cc)	4e-)	.
*v	*v	*	*	*
*	*v	*v	*
=16	=16	=16
(4F	4d ((4b-	p
8FF)	8c 8an))	.
8r	8r	.
4r	(8.dL	.
.	16e-Jk)	.
!!LO:LB:g=original
=17	=17	=17
8BB-L	2f	.
(8B-	.	.
8d	.	.
8B-	.	.
.	(a8q	.
8e-	()16gLL	.
.	16f	.
8cJ	16g	.
.	16aJJ)	.
=18	=18	=18
8dL	(4b-/	.
8c#	.	.
8d	4f)	.
8B-	.	.
.	(a8q	.
8e-	(16gLL)	.
.	16f	.
8cnJ	16g	.
.	16aJJ)	.
=19	=19	=19
8dL	8.b-'L	.
8c#	.	.
.	16a'k	.
8d	8.b-'	.
8A	.	.
.	16cc'k	.
8B-	8.dd'	.
8GJ)	.	.
.	16een'Jk	.
=20	=20	=20
*^	*^	*
(4F	4.F	4een	(4b-	.
8f)	.	8ff	8a)	.
8r	8r	8r	8r	.
*	*	*v	*v	*
.	.	(ff8q	.
4r	4r	(16ee-LL)	.
.	.	16dd	.
.	.	16ee-	.
.	.	16ffJJ)	.
*v	*v	*	*
!!LO:LB:g=original
=21	=21	=21
16r	(4gg	<
16FFLL	.	.
16AA	.	.
16CJJ	.	.
16FLL	4cc)	.
16A	.	.
16c	.	.
16dJJ	.	.
.	(dd8q	.
[4e-	(16ccLL)	.
.	16bn	.
.	16cc	.
.	16ddJJ)	.
=22	=22	=22
16e-LL]	(4ee-	<
16FF	.	.
16AA	.	.
16CJJ	.	.
16FLL	4a\)	.
16A	.	.
16c	.	.
16e-JJ	.	.
.	(b-X8q	.
[4g-	()16aLL	rfz
.	16g	.
.	16a	.
.	16b-JJ)	.
=23	=23	=23
.	(dd8q	.
(4g-]	(16ccLL)	.
.	16bn	.
.	16cc	.
.	16ddJJ	.
.	(ff8q	.
4F 4f	16ee-LL)	.
.	16dd	.
.	16ee-	.
.	16ffJJ	.
4F 4e-)	16ggLL	.
.	16ee-	.
.	16cc	.
.	16aJJ)	.
=24	=24	=24
8BB-'L	4b-	.
(8B-	.	.
8d	4r	.
8B-	.	.
.	(aa8q	.
8e-	(16ggLL)	p
.	16ff#	.
8B-J	16gg	.
.	16aaJJ	.
!!LO:LB:g=original
=25	=25	=25
*	*^	*
8dL	4bb-	4ryy	.
8c#	.	.	.
8d	8ff)	4ryy	.
8B-	8r	.	.
.	.	(a8q	.
8cn	4ee-	(16gLL)	.
.	.	16f	.
8FJ)	.	16g	.
.	.	16aJJ	.
=26	=26	=26	=26
(8B-L	4dd	4b-	.
8BB-	.	.	.
8D	4r	8f)	.
8BB-	.	8r	.
.	(a8q	.	.
8E-	(16gLL)	4ryy	.
.	16f#	.	.
8BB-J)	16g	.	.
.	16aJJ)	.	.
*	*v	*v	*
=27	=27	=27
*^	*	*
4ryy	(<8DL	(4b-/	.
.	8C#	.	.
4ryy	8D	8fn)	.
.	8BB-	8r	.
.	(A8q	.	.
16GLL	8Cn)	(>4e-	.
16F	.	.	.
16G	8FFJ	.	.
16AJJ	.	.	.
=28	=28	=28	=28
8B-L	8BB-L	4d	<
8FJ	8D	.	.
.	(A8q	.	.
16GLL	8C)	4e-	.
16F	.	.	.
16G	8FF	.	.
16AJJ	.	.	.
8B-L	8BB-	4d	.
8FJ	8DJ	.	.
!!LO:LB:g=original
=29	=29	=29	=29
A8q	.	.	.
16GLL	8CL	4e-	.
16F	.	.	.
16G	8FFJ	.	.
16AJJ	.	.	.
16B-LL	16BB-LL	8dL	.
16F	16D	.	.
16A	16FF	8e-	.
16FJJ	16CJJ	.	.
16B-LL	16BB-LL	8d	.
16F	16D	.	.
16A	16FF)	8e-J)	.
16FJJ	16CJJ	.	.
*v	*v	*	*
=30	=30	=30
4BB-' 4D'	4B-' 4d'	p
4BBB-' 4BB-'	4d' 4b-'	.
=:|!|:	=:|!|:	=:|!|:
*>C	*>C	*>C
!!!OMD: Minore
*M3/4	*M3/4	*
16dLL	4r	.
16e-	.	.
16d	.	.
16cJJ	.	.
=31	=31	=31
16B-LL	4r	.
16c	.	.
16B-	.	.
16AJJ	.	.
!	!	!LO:DY:rj
16GLL	[2d 2g 2b- [2dd	sf
16A	.	.
16B-	.	.
16AJJ	.	.
16GLL	.	.
16B-	.	.
16A	.	.
16GJJ	.	.
=32	=32	=32
16F#LL	4d] 4a 4cc 4dd]	.
16G	.	.
16F#	.	.
16E-JJ	.	.
!	!	!LO:DY:rj
16DLL	[2d 2f# 2a [2dd	sf
16E-	.	.
16D	.	.
16CJJ	.	.
16BB-LL	.	.
16C	.	.
16BB-	.	.
16AAJJ	.	.
!!LO:LB:g=original
=33	=33	=33
16GGLL	4d] 4g 4b- 4dd]	.
16FF#	.	.
16GG	.	.
16AAJJ	.	.
16BB-LL	2g 2b- ((2gg	sf
16AA	.	.
16BB-	.	.
16BBnJJ	.	.
16CLL	.	.
16BB	.	.
16C	.	.
16C#JJ	.	.
=34	=34	=34
16DLL	4f# 4a 4ff#))	.
16DD	.	.
16FF#	.	.
16AAJJ	.	.
16DLL	4r	.
16F#	.	.
16A	.	.
16c#JJ	.	.
16dLL	4r	.
16e-	.	.
16d	.	.
16cnJJ	.	.
=35	=35	=35
*	*^	*
*	*	*^	*
16B-LL	4r	4ryy	4ryy	.
16c	.	.	.	.
16B-	.	.	.	.
16AJJ	.	.	.	.
!	!	!	!	!LO:DY:rj
16GLL	2gg	[2g [2b-	4dd	sf
16A	.	.	.	.
16G	.	.	.	.
16FnJJ	.	.	.	.
16EnLL	.	.	4cc#	.
16F	.	.	.	.
16E	.	.	.	.
16DJJ	.	.	.	.
=36	=36	=36	=36	=36
16C#LL	4een 4gg	4g] 4b-]	4ryy	.
16D	.	.	.	.
16C#	.	.	.	.
16BB-JJ	.	.	.	.
!	!	!	!	!LO:DY:rj
16AALL	(2ccc#	(2cc#	4ee\	sf
16BB-	.	.	.	.
16AA	.	.	.	.
16GGJJ	.	.	.	.
16FFLL	.	.	4gg	.
16GG	.	.	.	.
16FF	.	.	.	.
16EEnJJ	.	.	.	.
*	*	*v	*v	*
*	*v	*v	*
!!LO:LB:g=original
=37	=37	=37
16DDLL	4dd 4ff 4ddd))	.
16EEn	.	.
16FF	.	.
16DDJJ	.	.
16GGLL	4dd' 4een' 4ddd'	ff
16AA	.	.
16BB-	.	.
16GGJJ	.	.
16AALL	4cc#' 4ee' 4ccc#'	.
16GG#	.	.
16AA	.	.
16AAAJJ	.	.
=38	=38	=38
16DDLL	4dd' 4ff' 4ddd'	.
16FF	.	.
16AA	.	.
16DJJ	.	.
4DD'	4r	.
=:|!|:	=:|!|:	=:|!|:
*>D	*>D	*>D
4r	16aa-LL	sf
.	16bb-	.
.	16aa-	.
.	16ggJJ	.
*clefG2	*	*
=39	=39	=39
*	*^	*
16a-zLL	4ryy	16ffLL	.
16b-	.	16gg	.
16a-	.	16ff	.
16gJJ	.	16ee-JJ	.
16fLL	4ryy	16ddLL	.
16g	.	16ee-	.
16f	.	16dd	.
16e-JJ	.	16ccJJ	.
*clefF4	*	*	*
4G (4d	16ggLL	(4bn	sf
.	16aa-	.	.
.	16gg	.	.
.	16ffJJ	.	.
!!LO:LB:g=original
=40	=40	=40	=40
8c 8e-)	16ee-LL	8cc)	.
.	16ff	.	.
8r	16ee-	8r	.
.	16ddJJ	.	.
4r	8cc	16ccLL	.
.	.	16b-	.
.	8ryy	16cc	.
.	.	16ddJJ	.
4r	4ryy	16ee-LL	sf
.	.	16ff	.
.	.	16ee-	.
.	.	16ddJJ	.
=41	=41	=41	=41
16e-zLL	16ccLL	4ryy	.
16f	16dd	.	.
16e-	16cc	.	.
16dJJ	16b-JJ	.	.
16cLL	16aLL	4ryy	.
16d	16b-	.	.
16c	16a	.	.
16B-JJ	16gJJ	.	.
!	!	!	!LO:DY:rj
4D (4A	16ddLL	(4f#	sf
.	16ee-	.	.
.	16dd	.	.
.	16ccJJ	.	.
=42	=42	=42	=42
8G 8B-)	16b-LL	8g)	.
.	16cc	.	.
8r	16b-	8r	.
.	16aJJ	.	.
4r	16gLL	4ryy	.
.	16f#	.	.
.	16g	.	.
.	16aJJ	.	.
!	!	!	!LO:DY:rj
16dLL	[4dd	[4g [4b-	sf
16e-	.	.	.
16d	.	.	.
16cJJ	.	.	.
!!LO:LB:g=original
=43	=43	=43	=43
16B-LL	4dd]	4g] 4b-]	.
16c	.	.	.
16B-	.	.	.
16AJJ	.	.	.
!	!	!	!LO:DY:rj
16GLL	2dd [2gg	[2g 2b-	sf
16A	.	.	.
16G	.	.	.
16FJJ	.	.	.
16E-LL	.	.	.
16F	.	.	.
16E-	.	.	.
16DJJ	.	.	.
*	*v	*v	*
=44	=44	=44
*	*^	*
*	*	*^	*
16CLL	4ee- 4gg]	4g] 4cc	4ryy	.
16D	.	.	.	.
16C	.	.	.	.
16BB-JJ	.	.	.	.
!	!	!	!	!LO:DY:rj
16AA-LL	[2ccc	[2cc	4ee-\	sf
16BB-	.	.	.	.
16AA-	.	.	.	.
16GGJJ	.	.	.	.
16FF#LL	.	.	[4aan\	.
16GG	.	.	.	.
16FF#	.	.	.	.
16EEnJJ	.	.	.	.
*	*	*v	*v	*
=45	=45	=45	=45
16DDLL	4aa] 4ccc]	4cc] 4ff#	.
16EEn	.	.	.
16FF#	.	.	.
16DDJJ	.	.	.
16GGLL	4gg' 4bb-'	4b- 4dd	ff
16AA	.	.	.
16BB-	.	.	.
16GGJJ	.	.	.
16DLL	4dd' 4ff#'	4f# 4a	.
16C	.	.	.
16BB-	.	.	.
16AAJJ	.	.	.
=46	=46	=46	=46
16GGLL	4gg'	4g 4b- 4dd	.
16BB-	.	.	.
16D	.	.	.
16GJJ	.	.	.
4GG'	4r	4ryy	.
*	*v	*v	*
!!LO:TX:rj:i:b:t=D.C. Minuetto\nsenza replica
==:|!	==:|!	==:|!
*-	*-	*-
!!!RDF**kern: > = above
!!!RDF**kern: < = below
!!!verovio: beamFrenchStyle
!!!LOR: Durand 1915, plates 9327/9328, Paul Dukas, ed.
!!!PED: Dukas, Paul
!!!URL-vhv: https://verovio.humdrum.org/?file=beethoven/sonatas/sonata11-3.krn
!!!URL-pdf: https://github.com/craigsapp/beethoven-piano-sonatas/blob/master/reference-edition/sonata11-3.pdf
!!!ENC: Craig Stuart Sapp
!!!END: 2005/08/25
!!!EED: Craig Stuart Sapp
!!!EEV: 2023/04/15
